X:1
T:Title
%%score 1 { 2 | 3 }
L:1/8
Q:1/4=115
M:4/4
K:G
V:1 treble nm="Grand Piano, Unnamed-000"
V:2 bass nm="Choir Pad, Erhalt Uns, Herr, LM"
V:3 bass 
V:1
 [B,E]4 [EG]2 [A,E]2 | [B,D]2 [CE]2 [EG]2 [^DF]2 | [CE]4 [EG]4 | [GA]2 [FA]2 [DB]2 [EG]2 | %4
w: By~Geistliche~Lieder~(Wittenberg,~Germany:~1543) * *||||
 [FA]2 [EA]2 [^DB]4 | [DB]4 [Ec]2 [DB]2 | [Dd]2 [GB]2 [GA]2 [FA]2 | [DG]4 [DB]4 | %8
w: ||||
 [EG]2 [EA]2 [DG]2 [DF]2 | [B,E]2 [B,^D]2 [B,E]4- | [B,E]4 z4 |] %11
w: |||
V:2
 G,4 B,2 E,2 | F,2 A,2 B,2 B,2 | G,4 B,4 | E2 D2 B,2 B,2 | D2[K:bass] A,2 F,4 | G,4 G,2 G,2 | %6
 A,2[K:treble] D2 E2 D2 | B,4 G,4 | G,2 C2 B,2 A,2 | G,2 F,2 ^G,4- | G,4 z4 |] %11
V:3
 E,4 E,2 C,2 | B,,2 A,,2 G,,2 B,,2 | E,,4 E,4 | C,2 D,2 G,2 E,2 | D,2 C,2 B,,4 | G,,4 C,2 z2 | %6
 F,2 G,2 C,2 D,2 | G,,4 z4 | C,2 A,,2 B,,2 D,2 | E,2 B,,2 E,,4- | E,,4 z4 |] %11

